X: 3
T: Firefly, The
M: 4/4
L: 1/8
R: clog
R: hornpipe
K: Gmaj
|: D |\
GFGA GBAG | FGEF DECD | B,DGD ECcB | A2 GE D2 EF |
GFGA GBAG | FGEF DECD | B,DGB BAGF | A2 G2 G3 :|
|: C |\
B,G B2 Gd g2 | g2 f2 edcB | cBcd cBAG | FAGE DEDC |
B,DGB GBdg | g2 f2 edcB | cBAG Fdef | g2 G2 G3 :|
